X:1
T: Drapers Gardens
N:
C:
S:Do not confuse with Draper's Gardens
A:
O:
R:
M:3/4
K:D
I:speed 150
%W: A1
% voice 1 (1 lines, 42 notes)
K:D
M:3/4
L:1/16
A2 F2 A2 d2 A2 F2 |d2 A2 d2 f2 d2 A2 |f2 d2 f2 a2 g2 f2 |e6 d2 e4 |A2 F2 A2 d2 A2 F2 |d2 A2 d2 f2 d2 A2 |f2 d2 f2 a2 g2 f2 |e6 d2 d4 |
%W: A2
% voice 1 (1 lines, 42 notes)
A2 F2 A2 d2 A2 F2 |d2 A2 d2 f2 d2 A2 |f2 d2 f2 a2 g2 f2 |e6 d2 e4 |A2 F2 A2 d2 A2 F2 |d2 A2 d2 f2 d2 A2 |f2 d2 f2 a2 g2 f2 |e6 d2 d4 |
%W: B1
% voice 1 (1 lines, 44 notes)
e2 c d e2 c2 A2 e2 |f2 d e f2 d2 f2 a2 |^g4 e4 g2 a2 |a6 ^g2 a4 |a2 a g f2 a2 f2 d2 |f2 f e d2 f2 d2 B2 |d2 f2 e2 a2 g2 f2 |e6 d2 d4 |
%W: B2
% voice 1 (1 lines, 44 notes)
e2 c d e2 c2 A2 e2 |f2 d e f2 d2 f2 a2 |^g4 e4 g2 a2 |a6 ^g2 a4 |a2 a g f2 a2 f2 d2 |f2 f e d2 f2 d2 B2 |d2 f2 e2 a2 g2 f2 |e6 d2 d4 ||
